Origami/64x64/apps/albion-online.svg

<svg width="64" height="64" version="1.1" viewBox="0 0 16.93 16.93" xmlns="http://www.w3.org/2000/svg">
 <g transform="translate(0,-280.06665)">
  <g transform="matrix(1.9047636 0 0 1.9480535 .50396612 -281.33479)" style="opacity:.2">
   <path d="m3.069165 292.1246h2.222498v3.23498l-1.1112488 1.11124-1.1112492-1.11124z"/>
   <path d="m3.069165 292.1246h1.1112492v4.34622l-1.1112492-1.11124z"/>
  </g>
  <g transform="matrix(1.9047636 0 0 1.9480535 .50396612 -281.59938)">
   <path d="m3.069165 292.1246h2.222498v3.23498l-1.1112488 1.11124-1.1112492-1.11124z" style="fill:#afafb1"/>
   <path d="m3.069165 292.1246h1.1112492v4.34622l-1.1112492-1.11124z" style="fill:#cccccc"/>
  </g>
  <rect transform="rotate(90)" x="285.62" y="-13.49" width="2.646" height="10.054" rx="1.323" ry="1.436" style="opacity:.2"/>
  <rect transform="rotate(90)" x="285.36" y="-13.49" width="2.646" height="10.054" rx="1.323" ry="1.436" style="fill:#ec8a2b"/>
  <rect x="6.88" y="281.65" width="3.175" height="3.704" style="fill:#d13808"/>
  <rect x="5.82" y="281.39" width="5.292" height="1.587" rx=".882" ry=".794" style="opacity:.2"/>
  <rect x="5.82" y="281.13" width="5.292" height="1.587" rx=".882" ry=".794" style="fill:#ec8a2b"/>
  <path transform="matrix(.26458333 0 0 .26458333 0 280.06665)" d="M 25.332031 4 C 23.485363 4 22 5.3380283 22 7 C 22 7.176315 22.019285 7.3469569 22.054688 7.5136719 C 22.312806 6.0862706 23.670765 5 25.332031 5 L 38.667969 5 C 40.329233 5 41.687194 6.0862706 41.945312 7.5136719 C 41.980713 7.3469475 42 7.1762772 42 7 C 42 5.3380283 40.514635 4 38.667969 4 L 25.332031 4 z" style="fill:#ffffff;opacity:.2"/>
  <path transform="matrix(.26458333 0 0 .26458333 0 280.06665)" d="m18.427734 20c-3.007428 0-5.427734 2.23-5.427734 5 0 0.169172 0.009701 0.335242 0.027344 0.5 0.271245-2.53298 2.576634-4.5 5.40039-4.5h27.144532c2.823756 0 5.129145 1.96702 5.40039 4.5 0.017643-0.164758 0.027344-0.330828 0.027344-0.5 0-2.77-2.420306-5-5.427734-5h-27.144532z" style="fill:#ffffff;opacity:.2"/>
 </g>
</svg>

<svg xmlns="http://www.w3.org/2000/svg" width="64" height="64" version="1.1" viewBox="0 0 16.93 16.93">
 <g transform="translate(0,-280.06665)">
  <g style="opacity:0.2" transform="matrix(1.9047636,0,0,1.9480535,0.50396612,-281.33479)">
   <path d="m 3.069165,292.1246 h 2.222498 v 3.23498 l -1.1112488,1.11124 -1.1112492,-1.11124 z"/>
   <path d="m 3.069165,292.1246 h 1.1112492 v 4.34622 L 3.069165,295.35958 Z"/>
  </g>
  <g transform="matrix(1.9047636,0,0,1.9480535,0.50396612,-281.59938)">
   <path style="fill:#afafb1" d="m 3.069165,292.1246 h 2.222498 v 3.23498 l -1.1112488,1.11124 -1.1112492,-1.11124 z"/>
   <path style="fill:#cccccc" d="m 3.069165,292.1246 h 1.1112492 v 4.34622 L 3.069165,295.35958 Z"/>
  </g>
  <rect style="opacity:0.2" width="2.646" height="10.054" x="285.62" y="-13.49" rx="1.323" ry="1.436" transform="rotate(90)"/>
  <rect style="fill:#ec8a2b" width="2.646" height="10.054" x="285.36" y="-13.49" rx="1.323" ry="1.436" transform="rotate(90)"/>
  <rect style="fill:#d13808" width="3.175" height="3.704" x="6.88" y="281.65"/>
  <rect style="opacity:0.2" width="5.292" height="1.587" x="5.82" y="281.39" rx=".882" ry=".794"/>
  <rect style="fill:#ec8a2b" width="5.292" height="1.587" x="5.82" y="281.13" rx=".882" ry=".794"/>
  <path style="opacity:0.2;fill:#ffffff" d="M 25.332031 4 C 23.485363 4 22 5.3380283 22 7 C 22 7.176315 22.019285 7.3469569 22.054688 7.5136719 C 22.312806 6.0862706 23.670765 5 25.332031 5 L 38.667969 5 C 40.329233 5 41.687194 6.0862706 41.945312 7.5136719 C 41.980713 7.3469475 42 7.1762772 42 7 C 42 5.3380283 40.514635 4 38.667969 4 L 25.332031 4 z" transform="matrix(0.26458333,0,0,0.26458333,0,280.06665)"/>
  <path style="opacity:0.2;fill:#ffffff" d="M 18.427734 20 C 15.420306 20 13 22.23 13 25 C 13 25.169172 13.009701 25.335242 13.027344 25.5 C 13.298589 22.96702 15.603978 21 18.427734 21 L 45.572266 21 C 48.396022 21 50.701411 22.96702 50.972656 25.5 C 50.990299 25.335242 51 25.169172 51 25 C 51 22.23 48.579694 20 45.572266 20 L 18.427734 20 z" transform="matrix(0.26458333,0,0,0.26458333,0,280.06665)"/>
 </g>
</svg>
